img/icons/icon-pdf.svg

<svg width="21" height="24" viewBox="0 0 21 24" fill="none" xmlns="http://www.w3.org/2000/svg">
<path d="M15.1114 0.127023C15.0714 0.0874397 15.0258 0.0565235 14.9745 0.0338723C14.9232 0.0112252 14.8633 0 14.8034 0H3.98102C2.85173 0 1.93631 0.909021 1.93631 2.02424V11.0837H1.50007C0.673167 11.0837 0 11.7499 0 12.5687V16.5099C0 17.3286 0.672964 17.995 1.50007 17.995H1.93631V21.9758C1.93631 23.0938 2.85453 24 3.98102 24H18.9553C20.0846 24 21 23.091 21 21.9758V6.13759C21 6.01904 20.9515 5.91171 20.8717 5.83274L15.1114 0.127023ZM1.49984 17.1313C1.15192 17.1313 0.869648 16.8518 0.869648 16.5074L0.869449 12.569C0.869449 12.2245 1.15172 11.9451 1.49964 11.9451H11.0902C11.4381 11.9451 11.7204 12.2245 11.7204 12.569V16.5102C11.7204 16.8546 11.4381 17.134 11.0902 17.134H1.50015L1.49984 17.1313ZM20.1305 21.973C20.1305 22.6138 19.6029 23.1361 18.9556 23.1361L3.98086 23.1363C3.33357 23.1363 2.80604 22.614 2.80604 21.9732V17.9924H11.0904C11.9173 17.9924 12.5905 17.3262 12.5905 16.5074L12.5903 12.569C12.5903 11.7503 11.9173 11.0839 11.0902 11.0839H2.8033V2.02446C2.8033 1.38365 3.33082 0.861404 3.97812 0.861404H14.3672V4.54009C14.3672 5.65808 15.2854 6.56432 16.4119 6.56432H20.1278V21.973L20.1305 21.973Z" fill="#2E3A59"/>
<path d="M3.90574 13.544C3.79496 13.5137 3.56001 13.5 3.20072 13.5H2.25V16.5H2.84423V15.3695H3.23047C3.49783 15.3695 3.70319 15.3556 3.84641 15.3254C3.95173 15.3033 4.05441 15.2537 4.15427 15.1821C4.25413 15.1104 4.33797 15.0112 4.40278 14.8871C4.4676 14.7604 4.5 14.6059 4.5 14.424C4.5 14.1841 4.44329 13.991 4.32987 13.8395C4.21362 13.6874 4.07305 13.5881 3.90574 13.544ZM3.81926 14.6634C3.77329 14.7296 3.71394 14.7792 3.63292 14.8096C3.55454 14.84 3.39798 14.8565 3.16303 14.8565H2.83896L2.83877 14.0072H3.12515C3.33862 14.0072 3.48163 14.0127 3.55191 14.0264C3.64912 14.0429 3.7275 14.0899 3.78968 14.1587C3.85186 14.2305 3.88426 14.3185 3.88426 14.4289C3.88671 14.5174 3.86524 14.5972 3.81926 14.6634Z" fill="#2E3A59"/>
<path d="M7.15888 13.8337C7.04522 13.7014 6.91156 13.6104 6.75341 13.5579C6.63716 13.5192 6.46659 13.5 6.24151 13.5H5.25V16.5H6.27118C6.47142 16.5 6.63216 16.4779 6.7508 16.4365C6.91154 16.3786 7.03761 16.2986 7.13161 16.1967C7.25527 16.0617 7.35168 15.8851 7.41842 15.6672C7.47275 15.4879 7.5 15.2756 7.5 15.0302C7.5 14.749 7.47034 14.5119 7.41101 14.3216C7.35668 14.126 7.27253 13.966 7.15888 13.8337ZM6.88689 15.5487C6.84981 15.6837 6.8029 15.7803 6.74357 15.8382C6.68666 15.8961 6.6125 15.9374 6.5235 15.9622C6.45676 15.9815 6.34793 15.9897 6.19461 15.9897H5.78914V14.0045H6.03387C6.25636 14.0045 6.40467 14.0128 6.47883 14.032C6.58024 14.0568 6.66423 14.1037 6.73098 14.1726C6.79772 14.2415 6.84722 14.338 6.8843 14.4621C6.92138 14.5861 6.93863 14.7654 6.93863 14.9969C6.94122 15.2318 6.92398 15.4164 6.88689 15.5487Z" fill="#2E3A59"/>
<path d="M8.25 16.5H8.91352V15.225H10.2827V14.7171H8.91352V14.0077H10.5V13.5H8.25V16.5Z" fill="#2E3A59"/>
</svg>

<svg width="21" height="24" viewBox="0 0 21 24" fill="none" xmlns="http://www.w3.org/2000/svg"><path d="M15.111.127A.429.429 0 0014.803 0H3.981c-1.13 0-2.045.909-2.045 2.024v9.06H1.5c-.827 0-1.5.666-1.5 1.485v3.94c0 .82.673 1.486 1.5 1.486h.436v3.98c0 1.119.919 2.025 2.045 2.025h14.974c1.13 0 2.045-.909 2.045-2.024V6.138a.427.427 0 00-.128-.305L15.112.127zM1.5 17.131a.627.627 0 01-.63-.624V12.57c0-.345.282-.624.63-.624h9.59c.348 0 .63.28.63.624v3.941a.627.627 0 01-.63.624H1.5v-.003zm18.63 4.842c0 .64-.527 1.163-1.174 1.163H3.98a1.171 1.171 0 01-1.175-1.163v-3.98h8.284c.827 0 1.5-.667 1.5-1.486V12.57c0-.819-.673-1.485-1.5-1.485H2.803v-9.06c0-.64.528-1.163 1.175-1.163h10.39v3.68c0 1.117.917 2.023 2.044 2.023h3.716v15.409h.003z" fill="#2E3A59"/><path d="M3.906 13.544c-.111-.03-.346-.044-.705-.044H2.25v3h.594v-1.13h.386c.268 0 .473-.014.616-.045a.83.83 0 00.556-.438c.066-.127.098-.281.098-.463 0-.24-.057-.433-.17-.585a.778.778 0 00-.424-.295zm-.087 1.12a.385.385 0 01-.186.146c-.078.03-.235.046-.47.046h-.324v-.849h.286c.214 0 .357.006.427.02a.395.395 0 01.332.402.385.385 0 01-.065.234zM7.159 13.834a.898.898 0 00-.406-.276 1.715 1.715 0 00-.511-.058H5.25v3h1.021c.2 0 .361-.022.48-.064a.938.938 0 00.38-.24c.124-.134.22-.31.287-.529.055-.18.082-.391.082-.637 0-.281-.03-.518-.089-.708a1.243 1.243 0 00-.252-.488zm-.272 1.715a.64.64 0 01-.143.29.485.485 0 01-.22.123c-.067.02-.176.028-.33.028H5.79v-1.986h.245c.222 0 .37.009.445.028a.512.512 0 01.252.14.693.693 0 01.153.29c.037.124.055.303.055.535.002.235-.015.42-.052.552zM8.25 16.5h.664v-1.275h1.369v-.508h-1.37v-.71H10.5V13.5H8.25v3z" fill="#2E3A59"/></svg>
